X:1
T:In The Mount ’ -“'-
Z:- GDAE
L:1/4
M:none
I:linebreak $
K:D
V:1 treble-8
V:1
 D2 F A d2 f G2 F D D F/G/ A d |$[M:2/2] (3[e=f']2 d'2 [=fe']2 | | =f/ g/ a b d' |$ A2 D2 | %5
 (3:2:2F2 !arpeggio!A D2 | f2 d2 | f/d/ d e/e/ | %8
